build/assets/images/svg/food/8-okhlazhdennaya_ryba.svg

<svg width="28" height="28" viewBox="0 0 28 28" fill="none" xmlns="http://www.w3.org/2000/svg">
<path d="M21.416 3.3179C21.6265 3.1044 21.6265 2.7579 21.416 2.5444C21.2055 2.3309 20.8639 2.3309 20.6534 2.5444C20.4429 2.7579 20.4429 3.1044 20.6534 3.3179C20.7535 3.4194 20.8915 3.4789 21.0364 3.4789C21.1779 3.4754 21.3159 3.4194 21.416 3.3179Z" fill="#203686"/>
<path d="M16.8439 9.95765C17.0268 9.95765 17.189 9.84565 17.258 9.67765C17.327 9.50965 17.289 9.31015 17.1614 9.18065C15.2738 7.26615 16.278 6.08665 16.4022 5.95715C16.5713 5.77865 16.5678 5.49165 16.3953 5.31665C16.2228 5.14165 15.9398 5.14165 15.7638 5.31315C15.7466 5.33065 13.9522 7.21365 16.5264 9.82465C16.6092 9.91215 16.7231 9.95765 16.8439 9.95765Z" fill="#203686"/>
<path d="M15.253 11.1128C13.2067 9.03727 13.8106 7.02127 13.8382 6.93727C13.89 6.78327 13.852 6.61177 13.7485 6.48927C13.6415 6.36677 13.4793 6.31427 13.3206 6.34577C13.1619 6.37727 13.0342 6.49627 12.9859 6.65027C12.9514 6.75527 12.1646 9.26477 14.6181 11.7568C14.7941 11.9353 15.077 11.9353 15.253 11.7568C15.429 11.5818 15.429 11.2913 15.253 11.1128Z" fill="#203686"/>
<path d="M23.1931 14.4585C26.9475 9.99249 26.8475 3.99699 26.6128 1.56099C26.53 0.797986 25.933 0.192486 25.1773 0.111986C23.0931 -0.0945138 18.3311 -0.196014 14.2282 2.29249C12.5649 1.83749 9.25224 1.64849 5.05962 5.15549C4.84912 5.33399 4.718 5.59649 4.70419 5.87299C4.69039 6.15649 4.79736 6.43299 4.99405 6.63249L8.3378 10.024C7.88231 11.48 7.58209 12.978 7.44406 14.5005C6.16039 14.4165 4.89743 14.868 3.94503 15.75L0.13199 19.614C-0.0439967 19.7925 -0.0439967 20.0795 0.13199 20.258C0.238962 20.3665 2.52678 22.6485 5.11482 22.162C4.63517 24.787 6.88504 27.111 6.99202 27.216C7.168 27.3945 7.45096 27.3945 7.62695 27.216L11.44 23.3485C12.527 22.246 12.7271 20.7305 12.665 19.516C12.9307 19.4845 13.3655 19.467 14.204 19.2395V17.4405C14.2903 17.416 15.9172 16.0311 16 15.9961C17.0152 15.5779 18.1025 14.084 20 16.1293C20.746 16.1982 21.3972 16.173 21.7922 15.855L23.1931 14.4585ZM25.091 1.01849C25.4154 1.05699 25.6742 1.31599 25.7156 1.64849C25.971 4.25949 25.7087 6.89499 24.9427 9.40099C23.1034 9.00199 21.4195 8.07449 20.084 6.73049C18.759 5.37599 17.8445 3.66449 17.4477 1.80249C19.9184 1.02549 22.5168 0.759486 25.091 1.01849ZM5.62898 5.99199C5.60828 5.97449 5.60138 5.94649 5.60138 5.91849C5.60138 5.89399 5.61173 5.87299 5.62898 5.85899C8.88991 3.13249 11.5194 2.79999 13.1619 3.00649C12.7789 3.28999 12.4131 3.59449 12.0646 3.91649C10.5601 5.35149 9.40062 7.11549 8.66907 9.07549L5.62898 5.99199ZM10.8051 22.7115L7.33019 26.236C6.71941 25.4765 5.4461 23.583 6.17075 21.7385L6.86434 21.035C6.98167 20.9195 7.02653 20.7515 6.98857 20.5905C6.94716 20.4295 6.82638 20.307 6.66765 20.265C6.50891 20.223 6.34328 20.272 6.22941 20.391L5.53581 21.0945C3.71728 21.8295 1.85045 20.538 1.10164 19.9185L4.57651 16.394C5.33912 15.7045 6.34328 15.351 7.3647 15.414C7.30948 16.275 7.28533 17.1675 7.30603 18.0985C7.33709 18.9595 8.01688 19.649 8.86576 19.6875C9.10041 19.691 9.3316 19.6945 9.5628 19.6945C10.322 19.6945 11.0535 19.6665 11.7678 19.6105C11.8196 20.6185 11.6574 21.8505 10.8051 22.7115ZM8.88646 18.7775C8.51724 18.7565 8.22393 18.459 8.20667 18.0845C8.0859 12.0295 9.58696 7.48999 12.6754 4.58849C13.821 3.52799 15.1495 2.68799 16.5954 2.11749C17.0405 4.10549 18.0274 5.92899 19.4457 7.37799C20.8708 8.81649 22.6652 9.81749 24.6252 10.269C24.0834 11.669 23.3036 12.957 22.3201 14.084C21.3518 14.9921 20.8625 15.466 20 15.4961C19.1073 15.5272 18.5 13.9961 17.5 14.9961C15.7332 15.8151 16.378 16.317 14.4214 16.849C14.2765 16.8875 13.7313 18.4625 13.5829 18.4835C12.0818 18.7005 10.4117 18.8125 8.88646 18.7775Z" fill="#203686"/>
<path d="M17.513 16.2882C17.3957 16.2567 17.2749 16.2742 17.1645 16.3372L16.6365 16.6697C16.4191 16.7957 16.3467 17.0757 16.4709 17.2962C16.5296 17.4012 16.6296 17.4782 16.747 17.5097C16.7849 17.5202 16.8263 17.5237 16.8643 17.5237C16.9437 17.5237 17.0196 17.5027 17.0886 17.4607L17.6235 17.1247C17.8408 16.9987 17.9133 16.7187 17.7891 16.4982C17.727 16.3932 17.6304 16.3197 17.513 16.2882Z" fill="#203686"/>
<path d="M23.8243 20.2154C23.707 20.1839 23.5862 20.2014 23.4758 20.2644L22.9478 20.5969C22.8443 20.6564 22.7684 20.7579 22.7373 20.8734C22.7063 20.9924 22.7235 21.1149 22.7822 21.2199C22.8409 21.3249 22.9409 21.4019 23.0582 21.4334C23.0962 21.4439 23.1376 21.4474 23.1756 21.4474C23.2549 21.4474 23.3309 21.4264 23.3999 21.3844L23.9347 21.0484C24.1487 20.9224 24.2246 20.6424 24.1004 20.4219C24.0382 20.3239 23.9416 20.2469 23.8243 20.2154Z" fill="#203686"/>
<path d="M27.5893 20.5653L24.4043 18.6998C24.1524 18.5528 23.8349 18.5528 23.583 18.6998L22.7272 19.2003V17.3733C22.7272 17.0548 22.5581 16.7573 22.2855 16.5963L18.5691 14.4193C18.2965 14.2583 17.9583 14.2583 17.6857 14.4193L16.9128 14.8708C16.8886 14.8848 16.8679 14.8988 16.8507 14.9163L16.8472 14.9198L13.9728 16.5963C13.7001 16.7573 13.5311 17.0513 13.5311 17.3733V21.7238C13.5311 22.0423 13.7001 22.3398 13.9728 22.5008L17.6892 24.6778C17.9618 24.8388 18.2999 24.8388 18.5726 24.6778L19.9874 23.8483V25.0173C19.9874 25.3148 20.1461 25.5913 20.398 25.7383L23.583 27.6038C23.7107 27.6773 23.8522 27.7158 23.9936 27.7158C24.1351 27.7158 24.2766 27.6773 24.4043 27.6038L27.5893 25.7383C27.8412 25.5913 27.9999 25.3148 27.9999 25.0173V21.2898C27.9999 20.9923 27.8412 20.7158 27.5893 20.5653ZM17.6788 19.8093V23.6138L14.4351 21.7238L14.4248 17.7793L17.6788 19.8093ZM19.9874 21.2898V22.7913L18.5795 23.6243V19.8163L20.7569 18.5563C20.9743 18.4303 21.0467 18.1503 20.9225 17.9298C20.8638 17.8248 20.7638 17.7478 20.6499 17.7163C20.5326 17.6848 20.4118 17.7023 20.3083 17.7618L18.1343 19.0218L14.9942 17.0618L17.2992 15.7178C17.3199 15.7038 17.3441 15.6898 17.3614 15.6723L17.3648 15.6688L18.1205 15.2138L21.8266 17.3733V19.7288L20.4014 20.5653C20.1461 20.7158 19.9874 20.9923 19.9874 21.2898ZM20.8914 21.7203L23.5416 23.4108V26.5223L20.8914 24.9683V21.7203ZM24.4457 23.4108L27.0958 21.7203V24.9683L24.4457 26.5223V23.4108ZM23.9936 22.6163L21.4608 21.0028L23.9936 19.5188L26.5265 21.0028L23.9936 22.6163Z" fill="#203686"/>
</svg>

<svg width="28" height="28" fill="none" xmlns="http://www.w3.org/2000/svg"><path d="M21.416 3.318a.553.553 0 000-.774.534.534 0 00-.763 0 .553.553 0 000 .774.54.54 0 00.383.16.553.553 0 00.38-.16zm-4.572 6.64a.448.448 0 00.414-.28.464.464 0 00-.097-.497c-1.887-1.915-.883-3.094-.759-3.224a.464.464 0 00-.007-.64.449.449 0 00-.631-.004c-.017.018-1.812 1.9.762 4.512a.432.432 0 00.318.133zm-1.591 1.155c-2.046-2.076-1.442-4.092-1.415-4.176a.469.469 0 00-.09-.448.448.448 0 00-.762.161c-.035.105-.821 2.615 1.632 5.107a.443.443 0 00.635 0 .459.459 0 000-.644z" fill="#203686"/><path d="M23.193 14.459c3.755-4.467 3.654-10.462 3.42-12.898A1.627 1.627 0 0025.177.112c-2.084-.207-6.846-.308-10.949 2.18-1.663-.455-4.976-.644-9.168 2.863-.21.179-.342.441-.356.718-.014.283.093.56.29.76l3.344 3.391a21.477 21.477 0 00-.894 4.477 4.698 4.698 0 00-3.499 1.249L.132 19.614a.459.459 0 000 .644c.107.108 2.395 2.39 4.983 1.904-.48 2.625 1.77 4.949 1.877 5.054a.443.443 0 00.635 0l3.813-3.867c1.087-1.103 1.287-2.619 1.225-3.833.266-.031.7-.049 1.539-.276v-1.8c.086-.024 1.713-1.409 1.796-1.444 1.015-.418 2.102-1.912 4 .133.746.07 1.397.044 1.792-.274l1.401-1.396zm1.898-13.44a.72.72 0 01.625.63 19.898 19.898 0 01-.773 7.752 9.77 9.77 0 01-4.859-2.67 10.04 10.04 0 01-2.636-4.929 19.096 19.096 0 017.643-.784zM5.629 5.991a.098.098 0 01-.028-.074c0-.024.01-.045.028-.059 3.26-2.727 5.89-3.059 7.533-2.853-.383.284-.749.588-1.097.91a13.784 13.784 0 00-3.396 5.16L5.63 5.991zm5.176 16.72L7.33 26.236c-.61-.76-1.884-2.653-1.16-4.498l.694-.703a.47.47 0 00.125-.445.448.448 0 00-.76-.199l-.693.704c-1.819.735-3.686-.557-4.434-1.176l3.475-3.525a3.808 3.808 0 012.788-.98c-.056.861-.08 1.754-.059 2.685.031.86.71 1.55 1.56 1.588.234.004.466.008.697.008.759 0 1.49-.029 2.205-.085.052 1.009-.11 2.24-.963 3.102zm-1.919-3.934a.723.723 0 01-.68-.694c-.12-6.054 1.381-10.594 4.47-13.496a12.563 12.563 0 013.92-2.47 10.935 10.935 0 002.85 5.26 10.659 10.659 0 005.18 2.891 12.852 12.852 0 01-2.306 3.815c-.968.908-1.457 1.382-2.32 1.412-.893.031-1.5-1.5-2.5-.5-1.767.82-1.122 1.321-3.079 1.853-.144.038-.69 1.613-.838 1.634a29.22 29.22 0 01-4.697.294z" fill="#203686"/><path d="M17.513 16.288a.454.454 0 00-.349.05l-.527.332a.461.461 0 00.11.84.448.448 0 00.342-.05l.535-.335a.461.461 0 00.165-.627.453.453 0 00-.276-.21zm6.311 3.927a.454.454 0 00-.348.05l-.528.332a.457.457 0 00.228.85c.079 0 .155-.02.224-.063l.535-.336a.465.465 0 00.165-.626.476.476 0 00-.276-.207z" fill="#203686"/><path d="M27.59 20.565L24.403 18.7a.82.82 0 00-.821 0l-.856.5v-1.827a.905.905 0 00-.442-.777L18.57 14.42a.868.868 0 00-.883 0l-.773.452a.285.285 0 00-.062.045l-.004.004-2.874 1.676a.9.9 0 00-.442.777v4.35c0 .32.17.617.442.778l3.716 2.177c.273.16.61.16.884 0l1.414-.83v1.17c0 .297.16.573.411.72l3.185 1.866c.128.073.27.112.41.112a.824.824 0 00.411-.112l3.185-1.866a.837.837 0 00.41-.72V21.29a.847.847 0 00-.41-.725zm-9.911-.756v3.805l-3.244-1.89-.01-3.945 3.254 2.03zm2.308 1.48v1.502l-1.407.833v-3.808l2.177-1.26a.461.461 0 00-.107-.84.447.447 0 00-.342.046l-2.174 1.26-3.14-1.96 2.305-1.344c.02-.014.045-.028.062-.046l.004-.003.756-.455 3.706 2.16v2.355l-1.426.836a.843.843 0 00-.414.725zm.904.431l2.65 1.69v3.112l-2.65-1.554V21.72zm3.555 1.69l2.65-1.69v3.248l-2.65 1.554v-3.111zm-.452-.794l-2.533-1.613 2.533-1.484 2.532 1.484-2.532 1.613z" fill="#203686"/></svg>
